packages/sources/icons/src/vitamix/calendar-fill.svg

<svg width="16" height="16" viewBox="0 0 16 16" xmlns="http://www.w3.org/2000/svg"><path fill-rule="evenodd" clip-rule="evenodd" d="M14.0002 2.66671H11.3335V1.33337H10.0002V2.66671H6.00016V1.33337H4.66683V2.66671H2.00016C1.63197 2.66671 1.3335 2.96518 1.3335 3.33337V14C1.3335 14.3682 1.63197 14.6667 2.00016 14.6667H14.0002C14.3684 14.6667 14.6668 14.3682 14.6668 14V3.33337C14.6668 2.96518 14.3684 2.66671 14.0002 2.66671ZM2.66683 6.66671H13.3335V13.3334H2.66683V6.66671Z"/></svg>

<svg width="16" height="16" xmlns="http://www.w3.org/2000/svg"><path fill-rule="evenodd" clip-rule="evenodd" d="M14 2.667h-2.667V1.333H10v1.334H6V1.333H4.667v1.334H2a.667.667 0 0 0-.667.666V14c0 .368.299.667.667.667h12a.667.667 0 0 0 .667-.667V3.333A.667.667 0 0 0 14 2.667Zm-11.333 4h10.666v6.666H2.667V6.667Z"/></svg>
